icons/nausea_fill.svg

<svg width="48" height="48" viewBox="0 0 48 48" fill="none" xmlns="http://www.w3.org/2000/svg">
<path d="M25.1716 8.17157C26.0154 7.32777 27.1424 6.93977 28.2466 7.00756C27.631 5.25582 25.9622 4 24 4C21.5147 4 19.5 6.01472 19.5 8.5C19.5 10.9853 21.5147 13 24 13C24.1751 13 24.348 12.99 24.5179 12.9705C23.6533 11.4448 23.8712 9.47191 25.1716 8.17157Z" fill="black"/>
<path d="M13.8493 17.0002C15.0941 15.7409 16.8649 15 18.9884 15H29.1716L26.5858 12.4142C25.8047 11.6332 25.8047 10.3668 26.5858 9.58579C27.3668 8.80474 28.6332 8.80474 29.4142 9.58579L35.4142 15.5858C35.9862 16.1578 36.1573 17.018 35.8478 17.7654C35.5382 18.5127 34.8089 19 34 19H30V42C30 43.0722 29.1544 43.9537 28.0831 43.9983C27.0118 44.0428 26.096 43.2346 26.0069 42.1661L25.1597 32H22.8403L21.9931 42.1661C21.904 43.2346 20.9882 44.0428 19.9169 43.9983C18.8456 43.9537 18 43.0722 18 42V30H21C23.2091 30 25 28.2091 25 26C25 23.7909 23.2091 22 21 22H18V19.1088C17.3996 19.2527 16.9805 19.5224 16.694 19.8123C16.2492 20.2622 16.0063 20.879 16.0001 21.5192C15.994 22.158 16.2233 22.758 16.6498 23.1924C17.0565 23.6064 17.7714 24 18.9884 24H20.9913C22.0959 24 22.9913 24.8954 22.9913 26C22.9913 27.1046 22.0959 28 20.9913 28H18.9893C16.8375 28 15.0466 27.2686 13.796 25.9951C12.5652 24.742 11.9848 23.092 12.0003 21.4808C12.0158 19.871 12.6259 18.2378 13.8493 17.0002Z" fill="black"/>
</svg>

<svg
  xmlns="http://www.w3.org/2000/svg"
  width="24"
  height="24"
  viewBox="0 0 24 24"
  fill="none"
  stroke="currentColor"
  stroke-width="2"
  stroke-linecap="round"
  stroke-linejoin="round"
>
  <path d="M25.172 8.172a4 4 0 0 1 3.075-1.164A4.502 4.502 0 0 0 19.5 8.5a4.5 4.5 0 0 0 5.018 4.47 4 4 0 0 1 .654-4.798" />
  <path d="M13.85 17c1.244-1.26 3.015-2 5.138-2h10.184l-2.586-2.586a2 2 0 1 1 2.828-2.828l6 6A2 2 0 0 1 34 19h-4v23a2 2 0 0 1-3.993.166L25.16 32h-2.32l-.847 10.166A2 2 0 0 1 18 42V30h3a4 4 0 0 0 0-8h-3v-2.891c-.6.144-1.02.413-1.306.703A2.46 2.46 0 0 0 16 21.52a2.34 2.34 0 0 0 .65 1.673c.407.414 1.121.808 2.338.808h2.003a2 2 0 1 1 0 4H18.99c-2.152 0-3.942-.731-5.193-2.005-1.23-1.253-1.811-2.903-1.796-4.514A6.46 6.46 0 0 1 13.85 17" />
</svg>
